modules/hawcons-filled/icons/icon-69-thermometer-half.svg

<?xml version="1.0" encoding="UTF-8" standalone="no"?>
<svg width="32px" height="32px" viewBox="0 0 32 32" version="1.1" xmlns="http://www.w3.org/2000/svg" xmlns:xlink="http://www.w3.org/1999/xlink" xmlns:sketch="http://www.bohemiancoding.com/sketch/ns">
    <!-- Generator: Sketch 3.0.3 (7891) - http://www.bohemiancoding.com/sketch -->
    <title>icon 69 thermometer half</title>
    <desc>Created with Sketch.</desc>
    <defs></defs>
    <g id="Page-1" stroke="none" stroke-width="1" fill="none" fill-rule="evenodd" sketch:type="MSPage">
        <g id="icon-69-thermometer-half" sketch:type="MSArtboardGroup" fill="#929292">
            <path d="M16.9856957,23.1656908 C18.1583541,23.5734612 19,24.6884421 19,26 C19,27.6568543 17.6568543,29 16,29 C14.3431457,29 13,27.6568543 13,26 C13,24.6885853 13.841462,23.5737048 15.01392,23.1658244 C15.0047629,23.1111049 15,23.0548783 15,22.9975267 L15,13.0024733 C15,12.455761 15.4477153,12 16,12 C16.5561352,12 17,12.4488226 17,13.0024733 L17,22.9975267 C17,23.0547158 16.995101,23.1109097 16.9856957,23.1656908 L16.9856957,23.1656908 Z M18,22.5351287 C19.1956028,23.2267475 20,24.5194352 20,26 C20,28.2091391 18.2091391,30 16,30 C13.7908609,30 12,28.2091391 12,26 C12,24.5194352 12.8043972,23.2267475 14,22.5351287 L14,4.00359486 C14,2.88976324 14.8954305,2 16,2 C17.1122704,2 18,2.89703997 18,4.00359486 L18,22.5351287 L18,22.5351287 L18,22.5351287 Z M19.9686149,21.4998925 C21.2143165,22.5993118 22,24.2079027 22,26 C22,29.3137087 19.3137087,32 16,32 C12.6862913,32 10,29.3137087 10,26 C10,24.2079329 10.785657,22.599366 12.0313221,21.4999481 C12.0106518,21.3352618 12,21.1674643 12,20.9971835 L12,4.00281647 C12,1.79793835 13.790861,0 16,0 C18.2046438,0 20,1.79212198 20,4.00281647 L20,20.9971835 C20,21.1673915 19.9893278,21.3351745 19.9686149,21.4998925 L19.9686149,21.4998925 L19.9686149,21.4998925 Z" id="thermometer-half" sketch:type="MSShapeGroup"></path>
        </g>
    </g>
</svg>

<svg width="32" height="32" viewBox="0 0 32 32" xmlns="http://www.w3.org/2000/svg"><path d="M16.986 23.166A3.001 3.001 0 0 1 16 29a3 3 0 0 1-.986-5.834 1.02 1.02 0 0 1-.014-.168v-9.996a.999.999 0 1 1 2 0v9.996a.993.993 0 0 1-.014.168zm1.014-.63a4 4 0 1 1-4 0V4.003C14 2.89 14.895 2 16 2c1.112 0 2 .897 2 2.004v18.531zm1.969-1.036a6 6 0 1 1-7.937 0 4.036 4.036 0 0 1-.032-.503V4.003A4.005 4.005 0 0 1 16 0c2.205 0 4 1.792 4 4.003v16.994c0 .17-.01.338-.031.503z" fill="#929292" fill-rule="evenodd"/></svg>
